svg/fluentui-system-icons/ic_fluent_compass_northwest_20_regular.svg

<svg width="20" height="20" viewBox="0 0 20 20" fill="none" xmlns="http://www.w3.org/2000/svg">
<path d="M3 10C3 6.13401 6.13401 3 10 3C13.866 3 17 6.13401 17 10C17 13.866 13.866 17 10 17C6.13401 17 3 13.866 3 10ZM10 2C5.58172 2 2 5.58172 2 10C2 14.4183 5.58172 18 10 18C14.4183 18 18 14.4183 18 10C18 5.58172 14.4183 2 10 2ZM6.09651 7.42068C5.71416 6.5795 6.5795 5.71416 7.42068 6.09651L10.6827 7.57924C11.4531 7.92942 12.0705 8.54684 12.4207 9.31722L13.9034 12.5792C14.2858 13.4204 13.4204 14.2858 12.5792 13.9034L9.31722 12.4207C8.54684 12.0705 7.92942 11.4531 7.57925 10.6827L6.09651 7.42068ZM10.2689 8.48961L7.00688 7.00688L8.48961 10.2689C8.73973 10.8192 9.18075 11.2602 9.73102 11.5103L12.993 12.993L11.5103 9.73102C11.2602 9.18075 10.8192 8.73973 10.2689 8.48961Z" fill="#212121"/>
</svg>

<svg xmlns="http://www.w3.org/2000/svg" width="20" height="20"><path d="M3 10a7 7 0 1 1 14 0 7 7 0 0 1-14 0Zm7-8a8 8 0 1 0 0 16 8 8 0 0 0 0-16ZM6.097 7.42c-.383-.84.482-1.706 1.324-1.323l3.262 1.482a3.5 3.5 0 0 1 1.738 1.738l1.482 3.262c.383.841-.483 1.707-1.324 1.324l-3.262-1.482a3.5 3.5 0 0 1-1.738-1.738L6.097 7.42Zm4.172 1.07L7.007 7.007l1.483 3.262a2.5 2.5 0 0 0 1.24 1.241l3.262 1.483-1.483-3.262A2.5 2.5 0 0 0 10.27 8.49Z"/></svg>
